website/assets/images/3dviewer_net_logo_social.svg

<svg xmlns="http://www.w3.org/2000/svg" xmlns:xlink="http://www.w3.org/1999/xlink" xml:space="preserve" width="1280" height="640"><defs><path id="a" d="M-5-1h62v62H-5z"/></defs><clipPath id="b"><use xlink:href="#a" overflow="visible" style="overflow:visible" width="100%" height="100%"/></clipPath><path style="opacity:1;fill:#fff;fill-opacity:1;fill-rule:nonzero;stroke:none;stroke-width:.67433947;stroke-linecap:round;stroke-linejoin:round;stroke-miterlimit:4;stroke-dasharray:none;stroke-dashoffset:0;stroke-opacity:1;paint-order:markers stroke fill" d="M-4.898-26.749h1280v640h-1280z" transform="translate(4.898 26.75)"/><g transform="translate(444.87 94.851) scale(7.50499)" clip-path="url(#b)"><defs><path d="M-5-1h62v62H-5z" id="c"/></defs><clipPath id="d"><use height="100%" width="100%" style="overflow:visible" overflow="visible" xlink:href="#c"/></clipPath><path style="fill:#64c0ff" d="m38.4 37.1 12.4 7.3L26 58.6 1.2 44.4l12.4-7.3L26 44.4l12.4-7.3L26 44.4l-12.4-7.3" clip-path="url(#d)"/><path style="fill:none;stroke:#000;stroke-width:1.03299999;stroke-linecap:round;stroke-linejoin:round;stroke-miterlimit:10" d="m38.4 37.1 12.4 7.3L26 58.6 1.2 44.4l12.4-7.3L26 44.4l12.4-7.3L26 44.4l-12.4-7.3" clip-path="url(#d)"/><path style="fill:#64c0ff" d="M26 15.6V1.4l24.8 14.2v28.8l-12.4-7.3V22.9z" clip-path="url(#d)"/><path style="fill:none;stroke:#000;stroke-width:1.03299999;stroke-linecap:round;stroke-linejoin:round;stroke-miterlimit:10" d="M26 15.6V1.4l24.8 14.2v28.8l-12.4-7.3V22.9z" clip-path="url(#d)"/><path style="fill:#64c0ff" d="M38.4 22.9 26 30v14.4l12.4-7.3z" clip-path="url(#d)"/><path style="fill:none;stroke:#000;stroke-width:1.03299999;stroke-linecap:round;stroke-linejoin:round;stroke-miterlimit:10" d="M38.4 22.9 26 30v14.4l12.4-7.3z" clip-path="url(#d)"/><path style="fill:#64c0ff" d="M13.6 22.9 26 15.6V1.4L1.2 15.6v28.8l12.4-7.3z" clip-path="url(#d)"/><path style="fill:none;stroke:#000;stroke-width:1.03299999;stroke-linecap:round;stroke-linejoin:round;stroke-miterlimit:10" d="M13.6 22.9 26 15.6V1.4L1.2 15.6v28.8l12.4-7.3z" clip-path="url(#d)"/><path style="fill:#64c0ff" d="M38.4 22.9 26 15.6l-12.4 7.3L26 30z" clip-path="url(#d)"/><path style="fill:none;stroke:#000;stroke-width:1.03299999;stroke-linecap:round;stroke-linejoin:round;stroke-miterlimit:10" d="M38.4 22.9 26 15.6l-12.4 7.3L26 30z" clip-path="url(#d)"/><path style="fill:#64c0ff" d="M13.6 37.1V22.9L26 30v14.4z" clip-path="url(#d)"/><path style="fill:none;stroke:#000;stroke-width:1.03299999;stroke-linecap:round;stroke-linejoin:round;stroke-miterlimit:10" d="M13.6 37.1V22.9L26 30v14.4z" clip-path="url(#d)"/><g clip-path="url(#d)"><defs><path d="M-5-1h62v62H-5z" id="e"/></defs><clipPath id="f"><use height="100%" width="100%" style="overflow:visible" overflow="visible" xlink:href="#e"/></clipPath><g style="opacity:.3" clip-path="url(#f)"><defs><path d="M26 1.4h24.8v43H26z" id="g"/></defs><clipPath id="h"><use height="100%" width="100%" style="overflow:visible" overflow="visible" xlink:href="#g"/></clipPath><path style="fill:#010202" d="M26 15.6V1.4l24.8 14.2v28.8l-12.4-7.3V22.9z" clip-path="url(#h)"/></g><g style="opacity:.6" clip-path="url(#f)"><defs><path d="M26 22.9h12.4v21.5H26z" id="i"/></defs><clipPath id="j"><use height="100%" width="100%" style="overflow:visible" overflow="visible" xlink:href="#i"/></clipPath><path style="fill:#010202" d="M38.4 22.9 26 30v14.4l12.4-7.3z" clip-path="url(#j)"/></g><g style="opacity:.6" clip-path="url(#f)"><defs><path d="M1.2 1.4H26v43H1.2z" id="k"/></defs><clipPath id="l"><use height="100%" width="100%" style="overflow:visible" overflow="visible" xlink:href="#k"/></clipPath><path style="fill:#010202" d="M13.6 22.9 26 15.6V1.4L1.2 15.6v28.8l12.4-7.3z" clip-path="url(#l)"/></g><g style="opacity:.3" clip-path="url(#f)"><defs><path d="M13.6 22.9H26v21.5H13.6z" id="m"/></defs><clipPath id="n"><use height="100%" width="100%" style="overflow:visible" overflow="visible" xlink:href="#m"/></clipPath><path style="fill:#010202" d="M13.6 37.1V22.9L26 30v14.4z" clip-path="url(#n)"/></g></g><path style="fill:none;stroke:#000;stroke-width:1.03299999;stroke-linecap:round;stroke-linejoin:round;stroke-miterlimit:10" d="m38.4 37.1 12.4 7.3L26 58.6 1.2 44.4l12.4-7.3L26 44.4l12.4-7.3L26 44.4l-12.4-7.3" clip-path="url(#d)"/><path style="fill:none;stroke:#000;stroke-width:1.03299999;stroke-linecap:round;stroke-linejoin:round;stroke-miterlimit:10" d="M26 15.6V1.4l24.8 14.2v28.8l-12.4-7.3V22.9z" clip-path="url(#d)"/><path style="fill:none;stroke:#000;stroke-width:1.03299999;stroke-linecap:round;stroke-linejoin:round;stroke-miterlimit:10" d="M38.4 22.9 26 30v14.4l12.4-7.3zm-24.8 0L26 15.6V1.4L1.2 15.6v28.8l12.4-7.3z" clip-path="url(#d)"/><path style="fill:none;stroke:#000;stroke-width:1.03299999;stroke-linecap:round;stroke-linejoin:round;stroke-miterlimit:10" d="M38.4 22.9 26 15.6l-12.4 7.3L26 30z" clip-path="url(#d)"/><path style="fill:none;stroke:#000;stroke-width:1.03299999;stroke-linecap:round;stroke-linejoin:round;stroke-miterlimit:10" d="M13.6 37.1V22.9L26 30v14.4z" clip-path="url(#d)"/></g></svg>

<?xml version="1.0" encoding="UTF-8" standalone="no"?>
<svg
   xmlns:dc="http://purl.org/dc/elements/1.1/"
   xmlns:cc="http://creativecommons.org/ns#"
   xmlns:rdf="http://www.w3.org/1999/02/22-rdf-syntax-ns#"
   xmlns:svg="http://www.w3.org/2000/svg"
   xmlns="http://www.w3.org/2000/svg"
   xmlns:xlink="http://www.w3.org/1999/xlink"
   xmlns:sodipodi="http://sodipodi.sourceforge.net/DTD/sodipodi-0.dtd"
   xmlns:inkscape="http://www.inkscape.org/namespaces/inkscape"
   xml:space="preserve"
   width="1280"
   height="640"
   version="1.1"
   id="svg104"
   sodipodi:docname="3dviewer_net_logo_social.svg"
   inkscape:version="0.92.4 (5da689c313, 2019-01-14)"
   inkscape:export-filename="C:\Users\kovacsv\GitRepos\Online3DViewer\website\assets\images\3dviewer_net_logo_social.png"
   inkscape:export-xdpi="96"
   inkscape:export-ydpi="96"><metadata
     id="metadata108"><rdf:RDF><cc:Work
         rdf:about=""><dc:format>image/svg+xml</dc:format><dc:type
           rdf:resource="http://purl.org/dc/dcmitype/StillImage" /></cc:Work></rdf:RDF></metadata><sodipodi:namedview
     pagecolor="#ffffff"
     bordercolor="#666666"
     borderopacity="1"
     objecttolerance="10"
     gridtolerance="10"
     guidetolerance="10"
     inkscape:pageopacity="0"
     inkscape:pageshadow="2"
     inkscape:window-width="1920"
     inkscape:window-height="1137"
     id="namedview106"
     showgrid="false"
     inkscape:zoom="1.034375"
     inkscape:cx="639.76737"
     inkscape:cy="320.59087"
     inkscape:window-x="-8"
     inkscape:window-y="-8"
     inkscape:window-maximized="1"
     inkscape:current-layer="svg104" /><defs
     id="defs3"><path
       id="a"
       d="M-5-1h62v62H-5z" /></defs><clipPath
     id="b"><use
       xlink:href="#a"
       overflow="visible"
       style="overflow:visible"
       width="100%"
       height="100%"
       id="use5" /></clipPath><path
     style="opacity:1;fill:#ffffff;fill-opacity:1;fill-rule:nonzero;stroke:none;stroke-width:0.67433947;stroke-linecap:round;stroke-linejoin:round;stroke-miterlimit:4;stroke-dasharray:none;stroke-dashoffset:0;stroke-opacity:1;paint-order:markers stroke fill"
     d="M-4.898-26.749h1280v640h-1280z"
     id="path8"
     transform="translate(4.898 26.75)" /><g
     transform="matrix(7.5049869,0,0,7.5049869,444.87034,94.851282)"
     clip-path="url(#b)"
     id="g98"><defs
       id="defs11"><path
         d="M -5,-1 H 57 V 61 H -5 Z"
         id="c"
         inkscape:connector-curvature="0" /></defs><clipPath
       id="d"><use
         height="100%"
         width="100%"
         style="overflow:visible"
         overflow="visible"
         xlink:href="#c"
         id="use13"
         x="0"
         y="0" /></clipPath><path
       style="fill:#64c0ff"
       d="M 38.4,37.1 50.8,44.4 26,58.6 1.2,44.4 13.6,37.1 26,44.4 38.4,37.1 26,44.4 13.6,37.1"
       clip-path="url(#d)"
       id="path16"
       inkscape:connector-curvature="0" /><path
       style="fill:none;stroke:#000000;stroke-width:1.03299999;stroke-linecap:round;stroke-linejoin:round;stroke-miterlimit:10"
       d="M 38.4,37.1 50.8,44.4 26,58.6 1.2,44.4 13.6,37.1 26,44.4 38.4,37.1 26,44.4 13.6,37.1"
       clip-path="url(#d)"
       id="path18"
       inkscape:connector-curvature="0" /><path
       style="fill:#64c0ff"
       d="M 26,15.6 V 1.4 L 50.8,15.6 V 44.4 L 38.4,37.1 V 22.9 Z"
       clip-path="url(#d)"
       id="path20"
       inkscape:connector-curvature="0" /><path
       style="fill:none;stroke:#000000;stroke-width:1.03299999;stroke-linecap:round;stroke-linejoin:round;stroke-miterlimit:10"
       d="M 26,15.6 V 1.4 L 50.8,15.6 V 44.4 L 38.4,37.1 V 22.9 Z"
       clip-path="url(#d)"
       id="path22"
       inkscape:connector-curvature="0" /><path
       style="fill:#64c0ff"
       d="M 38.4,22.9 26,30 v 14.4 l 12.4,-7.3 z"
       clip-path="url(#d)"
       id="path24"
       inkscape:connector-curvature="0" /><path
       style="fill:none;stroke:#000000;stroke-width:1.03299999;stroke-linecap:round;stroke-linejoin:round;stroke-miterlimit:10"
       d="M 38.4,22.9 26,30 v 14.4 l 12.4,-7.3 z"
       clip-path="url(#d)"
       id="path26"
       inkscape:connector-curvature="0" /><path
       style="fill:#64c0ff"
       d="M 13.6,22.9 26,15.6 V 1.4 L 1.2,15.6 v 28.8 l 12.4,-7.3 z"
       clip-path="url(#d)"
       id="path28"
       inkscape:connector-curvature="0" /><path
       style="fill:none;stroke:#000000;stroke-width:1.03299999;stroke-linecap:round;stroke-linejoin:round;stroke-miterlimit:10"
       d="M 13.6,22.9 26,15.6 V 1.4 L 1.2,15.6 v 28.8 l 12.4,-7.3 z"
       clip-path="url(#d)"
       id="path30"
       inkscape:connector-curvature="0" /><path
       style="fill:#64c0ff"
       d="M 38.4,22.9 26,15.6 13.6,22.9 26,30 Z"
       clip-path="url(#d)"
       id="path32"
       inkscape:connector-curvature="0" /><path
       style="fill:none;stroke:#000000;stroke-width:1.03299999;stroke-linecap:round;stroke-linejoin:round;stroke-miterlimit:10"
       d="M 38.4,22.9 26,15.6 13.6,22.9 26,30 Z"
       clip-path="url(#d)"
       id="path34"
       inkscape:connector-curvature="0" /><path
       style="fill:#64c0ff"
       d="M 13.6,37.1 V 22.9 L 26,30 v 14.4 z"
       clip-path="url(#d)"
       id="path36"
       inkscape:connector-curvature="0" /><path
       style="fill:none;stroke:#000000;stroke-width:1.03299999;stroke-linecap:round;stroke-linejoin:round;stroke-miterlimit:10"
       d="M 13.6,37.1 V 22.9 L 26,30 v 14.4 z"
       clip-path="url(#d)"
       id="path38"
       inkscape:connector-curvature="0" /><g
       clip-path="url(#d)"
       id="g86"><defs
         id="defs41"><path
           d="M -5,-1 H 57 V 61 H -5 Z"
           id="e"
           inkscape:connector-curvature="0" /></defs><clipPath
         id="f"><use
           height="100%"
           width="100%"
           style="overflow:visible"
           overflow="visible"
           xlink:href="#e"
           id="use43"
           x="0"
           y="0" /></clipPath><g
         style="opacity:0.3"
         clip-path="url(#f)"
         id="g54"><defs
           id="defs47"><path
             d="m 26,1.4 h 24.8 v 43 H 26 Z"
             id="g"
             inkscape:connector-curvature="0" /></defs><clipPath
           id="h"><use
             height="100%"
             width="100%"
             style="overflow:visible"
             overflow="visible"
             xlink:href="#g"
             id="use49"
             x="0"
             y="0" /></clipPath><path
           style="fill:#010202"
           d="M 26,15.6 V 1.4 L 50.8,15.6 V 44.4 L 38.4,37.1 V 22.9 Z"
           clip-path="url(#h)"
           id="path52"
           inkscape:connector-curvature="0" /></g><g
         style="opacity:0.6"
         clip-path="url(#f)"
         id="g64"><defs
           id="defs57"><path
             d="M 26,22.9 H 38.4 V 44.4 H 26 Z"
             id="i"
             inkscape:connector-curvature="0" /></defs><clipPath
           id="j"><use
             height="100%"
             width="100%"
             style="overflow:visible"
             overflow="visible"
             xlink:href="#i"
             id="use59"
             x="0"
             y="0" /></clipPath><path
           style="fill:#010202"
           d="M 38.4,22.9 26,30 v 14.4 l 12.4,-7.3 z"
           clip-path="url(#j)"
           id="path62"
           inkscape:connector-curvature="0" /></g><g
         style="opacity:0.6"
         clip-path="url(#f)"
         id="g74"><defs
           id="defs67"><path
             d="M 1.2,1.4 H 26 v 43 H 1.2 Z"
             id="k"
             inkscape:connector-curvature="0" /></defs><clipPath
           id="l"><use
             height="100%"
             width="100%"
             style="overflow:visible"
             overflow="visible"
             xlink:href="#k"
             id="use69"
             x="0"
             y="0" /></clipPath><path
           style="fill:#010202"
           d="M 13.6,22.9 26,15.6 V 1.4 L 1.2,15.6 v 28.8 l 12.4,-7.3 z"
           clip-path="url(#l)"
           id="path72"
           inkscape:connector-curvature="0" /></g><g
         style="opacity:0.3"
         clip-path="url(#f)"
         id="g84"><defs
           id="defs77"><path
             d="M 13.6,22.9 H 26 V 44.4 H 13.6 Z"
             id="m"
             inkscape:connector-curvature="0" /></defs><clipPath
           id="n"><use
             height="100%"
             width="100%"
             style="overflow:visible"
             overflow="visible"
             xlink:href="#m"
             id="use79"
             x="0"
             y="0" /></clipPath><path
           style="fill:#010202"
           d="M 13.6,37.1 V 22.9 L 26,30 v 14.4 z"
           clip-path="url(#n)"
           id="path82"
           inkscape:connector-curvature="0" /></g></g><path
       style="fill:none;stroke:#000000;stroke-width:1.03299999;stroke-linecap:round;stroke-linejoin:round;stroke-miterlimit:10"
       d="M 38.4,37.1 50.8,44.4 26,58.6 1.2,44.4 13.6,37.1 26,44.4 38.4,37.1 26,44.4 13.6,37.1"
       clip-path="url(#d)"
       id="path88"
       inkscape:connector-curvature="0" /><path
       style="fill:none;stroke:#000000;stroke-width:1.03299999;stroke-linecap:round;stroke-linejoin:round;stroke-miterlimit:10"
       d="M 26,15.6 V 1.4 L 50.8,15.6 V 44.4 L 38.4,37.1 V 22.9 Z"
       clip-path="url(#d)"
       id="path90"
       inkscape:connector-curvature="0" /><path
       style="fill:none;stroke:#000000;stroke-width:1.03299999;stroke-linecap:round;stroke-linejoin:round;stroke-miterlimit:10"
       d="M 38.4,22.9 26,30 V 44.4 L 38.4,37.1 Z M 13.6,22.9 26,15.6 V 1.4 L 1.2,15.6 v 28.8 l 12.4,-7.3 z"
       clip-path="url(#d)"
       id="path92"
       inkscape:connector-curvature="0" /><path
       style="fill:none;stroke:#000000;stroke-width:1.03299999;stroke-linecap:round;stroke-linejoin:round;stroke-miterlimit:10"
       d="M 38.4,22.9 26,15.6 13.6,22.9 26,30 Z"
       clip-path="url(#d)"
       id="path94"
       inkscape:connector-curvature="0" /><path
       style="fill:none;stroke:#000000;stroke-width:1.03299999;stroke-linecap:round;stroke-linejoin:round;stroke-miterlimit:10"
       d="M 13.6,37.1 V 22.9 L 26,30 v 14.4 z"
       clip-path="url(#d)"
       id="path96"
       inkscape:connector-curvature="0" /></g></svg>
